!!!CDT:
!!!PTL: Il primo libro de madrigali a cinque voci
!!!PPP: Venice
!!!PPR: Angelo Gardano
!!!PDT: 1587
!!!PUB-format:
!!!RISM: F 254
!!!rime: 760
!!!AGN: Madrigal
!!!SCT: Trm0760a
!!!SCA: Trm0760a
!!!original-voices: 5
!!!extant-voices: 5
!!!complete: Y
!!!final: (D)G
!!!COM: Ferrabosco, Alfonso
!!!OTL: Quant'io sono infelice
**kern	**text	**kern	**text	**kern	**text	**kern	**text	**kern	**text
*part5	*part5	*part4	*part4	*part3	*part3	*part2	*part2	*part1	*part1
*staff5	*staff5	*staff4	*staff4	*staff3	*staff3	*staff2	*staff2	*staff1	*staff1
*I"Basso	*	*I"Tenore	*	*I"Alto	*	*I"Quinto	*	*I"Canto	*
*I'B	*	*I'T	*	*I'A	*	*I'V	*	*I'C	*
*oclefF4	*	*oclefC4	*	*oclefC3	*	*oclefC1	*	*oclefC1	*
*clefF4	*	*clefGv2	*	*clefGv2	*	*clefG2	*	*clefG2	*
*k[b-]	*	*k[b-]	*	*k[b-]	*	*k[b-]	*	*k[b-]	*
*d:	*	*d:	*	*d:	*	*d:	*	*d:	*
*omet(C|)	*	*omet(C|)	*	*omet(C|)	*	*omet(C|)	*	*omet(C|)	*
*M2/1	*	*M2/1	*	*M2/1	*	*M2/1	*	*M2/1	*
=1	=1	=1	=1	=1	=1	=1	=1	=1	=1
2r	.	2.d	Quan-	0r	.	0r	.	0r	.
2.G	Quan-	.	.	.	.	.	.	.	.
.	.	4G	-t'io	.	.	.	.	.	.
.	.	2B-y	son	.	.	.	.	.	.
4D	-t'io	.	.	.	.	.	.	.	.
2F	son	4A	in-	.	.	.	.	.	.
.	.	4d	-fe-	.	.	.	.	.	.
=2	=2	=2	=2	=2	=2	=2	=2	=2	=2
4E	in-	8cL	-li-	1r	.	1r	.	2r	.
.	.	8B-y	.	.	.	.	.	.	.
2A	-fe-	8c	.	.	.	.	.	.	.
.	.	8AJ	.	.	.	.	.	.	.
.	.	2d	.	.	.	.	.	2.dd	Quan-
2G	-li-	.	.	.	.	.	.	.	.
.	.	2c	-ce,	2r	.	2.dd	Quan-	.	.
4F	.	.	.	.	.	.	.	4a	-t'io
2G	-ce	2r	.	[2g	Quan-	.	.	2b-y	son
.	.	.	.	.	.	4g	-t'io	.	.
=3	=3	=3	=3	=3	=3	=3	=3	=3	=3
0r	.	0r	.	4g]	.	2b-y	son	4g	in-
.	.	.	.	4d	-t'io	.	.	4dd	-fe-
.	.	.	.	2f	son	4a	in-	8ccL	-li-
.	.	.	.	.	.	.	.	8b-y	.
.	.	.	.	.	.	4dd	-fe-	8a	.
.	.	.	.	.	.	.	.	16g	.
.	.	.	.	.	.	.	.	16fJ	.
.	.	.	.	4e	in-	4cc	-li-	4g	.
.	.	.	.	2a	-fe-	8b-yL	.	4d	-ce
.	.	.	.	.	.	8aJ	.	.	.
.	.	.	.	.	.	2b-y	.	4dd	Tan-
.	.	.	.	[4g	-li-	.	.	8dd	-to
.	.	.	.	.	.	.	.	8dd	voi
=4	=4	=4	=4	=4	=4	=4	=4	=4	=4
2r	.	4r	.	4g]	.	2a	-ce,	4cc	bel-
.	.	2d	Quan-	4f	.	.	.	4a	-la
2G	Tan-	.	.	4g	-ce	4r	.	4.b-y	se-
.	.	4G	-t'io	4.d	Tan-	2g	Quan-	.	.
.	.	.	.	.	.	.	.	8a	.
4G	-to	2B-y	son	.	.	.	.	2g	.
.	.	.	.	8d	-to	.	.	.	.
4G	voi	.	.	4B-y	voi	4d	-t'io	.	.
4F	bel-	4A	in-	4c	bel-	2f	son	2a	-te,
4D	-la	4d	-fe-	4d	-la	.	.	.	.
=5	=5	=5	=5	=5	=5	=5	=5	=5	=5
2A	se-	2c#X	-li-	2enX	se-	4e	in-	2.a	Quan-
.	.	.	.	.	.	4a	-fe-	.	.
4D	-te,	2d	-ce	4d	-te,	2f#X	-li-	.	.
2D	Quan-	.	.	2A	Tan-	.	.	4d	-t'io
.	.	4A	Tan-	.	.	2a	-ce	2f	son
4AA	-t'io	8A	-to	4c	-to	.	.	.	.
.	.	8A	voi	.	.	.	.	.	.
2BB-y	son	4F	bel-	2B-y	voi,	4dd	Tan-	4d	in-
.	.	4D	-la	.	.	8dd	-to	4d	-fe-
.	.	.	.	.	.	8dd	voi	.	.
=6	=6	=6	=6	=6	=6	=6	=6	=6	=6
4AA	in-	2A	se-	2r	.	4cc	bel-	2f	-li-
4D	-fe-	.	.	.	.	4a	-la	.	.
2GG	-li-	2G	-te,	4g	Tan-	2b-y	se-	2g	-ce
.	.	.	.	8g	-to	.	.	.	.
.	.	.	.	8g	voi	.	.	.	.
2D	-ce	1r	.	4f	bel-	4a	-te,	4a	Tan-
.	.	.	.	4d	-la	4fnXi	Tan-	8a	-to
.	.	.	.	.	.	.	.	8a	voi
4D	Tan-	.	.	8dL	se-	4a	-to	4f	bel-
.	.	.	.	8e	.	.	.	.	.
8D	-to	.	.	8f	.	4b-y	voi	4d	-la
8D	voi	.	.	8gJ	.	.	.	.	.
=7	=7	=7	=7	=7	=7	=7	=7	=7	=7
4C	bel-	4A	Tan-	8aL	.	2cc	bel-	2e	se-
.	.	.	.	8eJ	.	.	.	.	.
4AA	-la	8A	-to	2a	.	.	.	.	.
.	.	8A	voi	.	.	.	.	.	.
2BB-y	se-	4F	bel-	.	.	4dd	-le	2d	-te,
.	.	4D	-la	4g	.	2dd	se-	.	.
2AA	-te,	2E	se-	2a	.	.	.	1r	.
.	.	.	.	.	.	4cc#i	.	.	.
2r	.	2D	-te,	2f#X	-te,	2dd	-te,	.	.
=8	=8	=8	=8	=8	=8	=8	=8	=8	=8
4D	E	2r	.	1r	.	0r	.	4f#X	E
4E	con	.	.	.	.	.	.	4g	con
2F	gl'oc-	4A	E	.	.	.	.	2a	gl'oc-
.	.	4B-y	con	.	.	.	.	.	.
4F	-ch'il	2c	gl'oc-	2r	.	.	.	4a	-ch'il
4E	mio	.	.	.	.	.	.	4g	mio
[2D	duol	4c	-ch'il	4.d	E	.	.	2f#X	duol,
.	.	4B-y	mio	.	.	.	.	.	.
.	.	.	.	8e	con	.	.	.	.
=9	=9	=9	=9	=9	=9	=9	=9	=9	=9
2D]	.	1A	duol	2f	gl'oc-	4a	E	2r	.
.	.	.	.	.	.	4b-y	con	.	.
2A	tem-	.	.	4e	-ch'il	2cc	gl'oc-	4e	<E
.	.	.	.	4c	mio	.	.	4f#X	con
2G	-prar	4r	.	2d	duol,	4cc	-ch'il	2g	gl'oc-
.	.	4d	tem-	.	.	4b-y	mio	.	.
2A	po-	4d	-prar	2r	.	4a	duol	4fnXi	-ch'il
.	.	4c#X	po-	.	.	4a	tem-	4e	mio
=10	=10	=10	=10	=10	=10	=10	=10	=10	=10
2B-y	-te-	4d	-te-	2r	.	2g	-prar	4d	duol>
.	.	4G	-te,	.	.	.	.	4d	tem-
2A	-te,	4r	.	4e	<E	2a	po-	4d	-prar
.	.	4A	tem-	4f#X	con	.	.	4c	po-
1r	.	2G	-prar	2g	gl'oc-	2b-y	-te-	2d	-te-
.	.	2A	po-	4fnXi	-ch'il	4a	-te,	2c	-te,
.	.	.	.	4e	mio	4a	tem-	.	.
=11	=11	=11	=11	=11	=11	=11	=11	=11	=11
4D	<E	2B-y	-te-	2d	duol>	4f	-prar	2r	.
4E	con	.	.	.	.	4g	po-	.	.
2F	gl'oc-	2A	-te,	4r	.	4.a	-te-	4r	.
.	.	.	.	4d	tem-	.	.	8a	E
.	.	.	.	.	.	8g	.	8b-y	con
4F	-ch'il	2r	.	2c	-prar	8aL	.	2cc	gl'oc-
.	.	.	.	.	.	8fJ	.	.	.
4E	mio	.	.	.	.	4g	.	.	.
4D	duol	4A	E	2d	po-	2f	-te,	4cc	-ch'il
4D	tem-	4B-y	con	.	.	.	.	4b-y	mio
=12	=12	=12	=12	=12	=12	=12	=12	=12	=12
2C	-prar	2c	gl'oc-	2e-X	-te-	2r	.	4a	duol
.	.	.	.	.	.	.	.	4g	tem-
2D	po-	4B-y	-ch'il	2d	-te,	2d	tem-	4g	-prar
.	.	4A	mio	.	.	.	.	4f#X	po-
1E-X	-te-	2G	duol	1r	.	2B-y	-prar	2.g	-te-
.	.	2G	tem-	.	.	2c	po-	.	.
.	.	.	.	.	.	.	.	4a	.
=13	=13	=13	=13	=13	=13	=13	=13	=13	=13
2D	-te,>	2F	-prar	2r	.	2.d	-te-	4b-y	.
.	.	.	.	.	.	.	.	4a	-te,
2BB-y	po-	2G	po-	2d	<tem-	.	.	4r	.
.	.	.	.	.	.	4e	.	4g	tem-
[1AA	-te-	2.A	-te-	2c	-prar	4f	.	8ccL	-prar
.	.	.	.	.	.	.	.	8b-y	.
.	.	.	.	.	.	4e	.	8a	.
.	.	.	.	.	.	.	.	8g	.
.	.	.	.	2d	po-	[2d	.	8fnXi	.
.	.	.	.	.	.	.	.	8gJ	.
.	.	8GL	.	.	.	.	.	[4a	.
.	.	8FJ	.	.	.	.	.	.	.
=14	=14	=14	=14	=14	=14	=14	=14	=14	=14
1AA]	.	1E	.	1e	-te-	2d]	.	4a]	.
.	.	.	.	.	.	.	.	4a	po-
.	.	.	.	.	.	2c#X	.	2a	-te-
1D	-te.	1D	-te.	1f#X	-te.>	1d	-te.	1a	-te.
=15||	=15||	=15||	=15||	=15||	=15||	=15||	=15||	=15||	=15||
2.D	Né	2.A	Né	2.d	Né	2.a	Né	2.f#X	Né
4GG	mi-	4G	mi-	4d	mi-	4b-y	mi-	4g	mi-
2C	-ra-	2G	-ra-	2c	-ra-	2g	-ra-	2e	-ra-
4AA	-col	4C	-col	4c	-col	4a	-col	4fnXi	-col
4BB-y	né	4D	né	4B-y	né	4f	né	4d	né
=16	=16	=16	=16	=16	=16	=16	=16	=16	=16
2GG	mo-	2G	mo-	2d	mo-	2g	mo-	2b-y	mo-
2D	-stro,	2A	-stro,	4d	-stro,	2f#X	-stro,	2a	-stro,
.	.	.	.	4d	mi-	.	.	.	.
2.D	<Né	2.d	<Né	2f#X	-ra-	2r	.	2.a	Né
.	.	.	.	4f#i	-col	2dd	Né	.	.
4G	mi-	4G	mi-	4g	né	.	.	4b-y	mi-
=17	=17	=17	=17	=17	=17	=17	=17	=17	=17
2E-X	-ra-	2c	-ra-	2g	mo-	4ee-X	mi-	2g	-ra-
.	.	.	.	.	.	2cc	-ra-	.	.
4F	-col	4A	-col	2fnXi	-stro	.	.	4a	-col
4D	né	4B-y	né	.	.	4dd	-col	4f	né
1E-X	mo-	1G	mo-	1r	.	4b-y	né	[1g	mo-
.	.	.	.	.	.	4.cc	mo-	.	.
.	.	.	.	.	.	8b-yL	.	.	.
.	.	.	.	.	.	8g	.	.	.
.	.	.	.	.	.	8aJ	.	.	.
=18	=18	=18	=18	=18	=18	=18	=18	=18	=18
1D	-stro>	1d	-stro>	1r	.	2b-y	.	2g]	.
.	.	.	.	.	.	2a	-stro	2f#X	-stro
2B-y	Al-	1r	.	4r	.	2dd	Al-	1r	.
.	.	.	.	4B-y	Al-	.	.	.	.
4A	-tro è	.	.	4f	-tro è	2cc	-tro è	.	.
4A	di	.	.	4f	di	.	.	.	.
=19	=19	=19	=19	=19	=19	=19	=19	=19	=19
4B-y	voi	4r	.	4d	voi	4dd	di	2dd	Al-
4B-y	mag-	4B-y	Al-	4G	mag-	2b-y	voi	.	.
2F	-gio-	4f	-tro è	2c	-gio-	.	.	2cc	-tro è
.	.	4f	di	.	.	4a	mag-	.	.
4BB-y	-re,	4d	voi	2B-y	-re,	8b-yL	-gio-	4dd	di
.	.	.	.	.	.	8cc	.	.	.
4BB-y	<Al-	4d	mag-	.	.	8dd	.	2b-y	voi
.	.	.	.	.	.	8b-yJ	.	.	.
4F	-tro è	2c	-gio-	4r	.	2cc	.	.	.
4F	di	.	.	4F	di	.	.	4a	mag-
=20	=20	=20	=20	=20	=20	=20	=20	=20	=20
4D	voi	4B-y	-re,	4F	voi	2f	-re;	8b-yL	-gio-
.	.	.	.	.	.	.	.	8cc	.
4D	mag-	4F	mag-	4B-y	mag-	.	.	8dd	.
.	.	.	.	.	.	.	.	8b-yJ	.
2C	-gio-	2c	-gio-	4B-y	-gio-	2r	.	2ee-i	.
.	.	.	.	4A	.	.	.	.	.
1BB-y	-re;>	2F	-re;	2B-y	-re;	2r	.	1dd	-re;
.	.	4r	.	4r	.	2b-y	Io	.	.
.	.	4G	Io	4d	Io	.	.	.	.
=21	=21	=21	=21	=21	=21	=21	=21	=21	=21
0r	.	4F	di	4f	di	4a	di	1r	.
.	.	4B-y	for-	4d	for-	4dd	for-	.	.
.	.	4A	-tu-	4e	-tu-	4cc	-tu-	.	.
.	.	4G	-na	4e	-na	4b-y	-na	.	.
.	.	8FL	mo-	4f	mo-	2a	mo-	2r	.
.	.	8G	.	.	.	.	.	.	.
.	.	8A	.	4F	-str'e	.	.	.	.
.	.	8FJ	.	.	.	.	.	.	.
.	.	2G	.	4B-y	voi	2d	-str'e	2b-y	Io
.	.	.	.	4c	d'a-	.	.	.	.
=22	=22	=22	=22	=22	=22	=22	=22	=22	=22
1r	.	2D	-stro	8dL	-mo-	2.f	voi	4a	di
.	.	.	.	8e	.	.	.	.	.
.	.	.	.	8f	.	.	.	4dd	for-
.	.	.	.	8gJ	.	.	.	.	.
.	.	4r	.	4a	.	.	.	4cc	-tu-
.	.	4G	e	4g	.	4g	d'a-	4b-y	-na
2r	.	4d	voi	2f	-re,	8aL	-mo-	2a	mo-
.	.	.	.	.	.	8g	.	.	.
.	.	4d	d'a-	.	.	8f	.	.	.
.	.	.	.	.	.	8eJ	.	.	.
4r	.	8B-yL	-mo-	4r	.	2f	.	2d	-str'e
.	.	8c	.	.	.	.	.	.	.
4BB-y	Io	8d	.	4d	Io	.	.	.	.
.	.	8B-yJ	.	.	.	.	.	.	.
=23	=23	=23	=23	=23	=23	=23	=23	=23	=23
4AA	di	4c	.	4c	di	2a	-re,	2f	voi
4D	for-	4F	-re,	4f	for-	.	.	.	.
4C	-tu-	2r	.	4e	-tu-	2r	.	2g	d'a-
4BB-y	-na	.	.	4d	-na	.	.	.	.
2AA	mo-	1r	.	4c#X	mo-	2r	.	2.a	-mo-
.	.	.	.	4e	-str'e	.	.	.	.
2D	-str'e	.	.	4f	voi	4r	.	.	.
.	.	.	.	4g	d'a-	4dd	Io	4d	-re,
=24	=24	=24	=24	=24	=24	=24	=24	=24	=24
2F	voi	1r	.	2a	-mo-	4cc	di	4r	.
.	.	.	.	.	.	4ff	for-	4a	e
2G	d'a-	.	.	2g	-re,	4ee	-tu-	4b-y	voi
.	.	.	.	.	.	4dd	-na	4b-y	d'a-
*lig	*	*	*	*	*	*	*	*	*
1A	-mo-	2r	.	2e	e	4cc	mo-	[1a	-mo-
.	.	.	.	.	.	4a	-str'e	.	.
.	.	2A	e	[2e	voi	4cc#X	voi	.	.
.	.	.	.	.	.	4dd	d'a-	.	.
=25	=25	=25	=25	=25	=25	=25	=25	=25	=25
1AA	.	4c#X	voi	4e]	.	8eeL	-mo-	1a]	.
*Xlig	*	*	*	*	*	*	*	*	*
.	.	.	.	.	.	8ddJ	.	.	.
.	.	4d	d'a-	4A	d'a-	2dd	.	.	.
.	.	2e	-mo-	2A	-mo-	.	.	.	.
.	.	.	.	.	.	4cc#i	.	.	.
2D	-re.	4d	-re.	2A	-re.	1dd	-re.	2f#X	-re.
.	.	4A	Ma,	.	.	.	.	.	.
4D	Ma,	4d	s'ad	4f	Ma,	.	.	4a	Ma,
4G	s'ad	4B-y	un	4d	s'ad	.	.	4b-y	s'ad
=26	=26	=26	=26	=26	=26	=26	=26	=26	=26
4F	un	2A	sguar-	4f	un	0r	.	4cc	un
8DL	sguar-	.	.	2f	sguar-	.	.	2dd	sguar-
8E	.	.	.	.	.	.	.	.	.
8F	.	2A	-do,	.	.	.	.	.	.
8G	.	.	.	.	.	.	.	.	.
8A	.	.	.	4f	-do	.	.	4cc	-do
8FJ	.	.	.	.	.	.	.	.	.
4G	.	2r	.	8dL	vo-	.	.	2b-y	vo-
.	.	.	.	8c	.	.	.	.	.
4GG	-do	.	.	8d	.	.	.	.	.
.	.	.	.	8eJ	.	.	.	.	.
2D	vo-	4A	Ma,	2f	.	.	.	2a	-stro,
.	.	4BnX	s'ad	.	.	.	.	.	.
=27	=27	=27	=27	=27	=27	=27	=27	=27	=27
2AA	-stro,	4c	un	2a	-stro,	4e	Ma,	4r	.
.	.	2d	sguar-	.	.	4f	s'ad	4a	Ma,
2r	.	.	.	2r	.	4g	un	4b-y	s'ad
.	.	4c	-do	.	.	2a	sguar-	4cc	un
1r	.	1B-X	vo-	4d	<Ma,	.	.	1dd	sguar-
.	.	.	.	4e	s'ad	4g	-do	.	.
.	.	.	.	4f	un	4f	vo-	.	.
.	.	.	.	[4g	sguar-	8eL	.	.	.
.	.	.	.	.	.	8dJ	.	.	.
=28	=28	=28	=28	=28	=28	=28	=28	=28	=28
4r	.	2A	-stro	4g]	.	4e	.	2.cc	-do
4A	un	.	.	4f	-do	8dL	.	.	.
.	.	.	.	.	.	8cJ	.	.	.
4G	sguar-	2r	.	4e	voi-	2g	.	.	.
4G	-do	.	.	4.d	.	.	.	4.b-y	vo-
2E-X	vo-	1r	.	.	.	2g	-stro	.	.
.	.	.	.	8c	.	.	.	8a	.
.	.	.	.	4c	.	.	.	2g	.
2D	-stro	.	.	2d	-stro>	2r	.	.	.
.	.	.	.	.	.	.	.	4f#X	-stro
=29	=29	=29	=29	=29	=29	=29	=29	=29	=29
2BB-y	In	2B-y	In	2f	In	2dd	In	1r	.
4FF	me	4A	me	2f	me,	2cc	me	.	.
4AA	tan-	4c	tan-	.	.	.	.	.	.
8GGL	-to,	4d	-to	2g	In	2b-y	tan-	4r	.
8AA	.	.	.	.	.	.	.	.	.
8BB-y	.	4D	pur	.	.	.	.	2dd	In
8CJ	.	.	.	.	.	.	.	.	.
4D	.	8FL	li-	4f	me	2a	-to	.	.
.	.	8GJ	.	.	.	.	.	.	.
4AA	tan-	4A	.	4e	tan-	.	.	4cc	me
=30	=30	=30	=30	=30	=30	=30	=30	=30	=30
8BB-yL	-to	2D	-ce,	2d	-to	4g	pur	2b-y	tan-
8C	.	.	.	.	.	.	.	.	.
8D	.	.	.	.	.	4.f	li-	.	.
8EJ	.	.	.	.	.	.	.	.	.
4F	.	2r	.	2c	pur	.	.	4a	-to
.	.	.	.	.	.	8e	.	.	.
4C	pur	.	.	.	.	4.e	.	4g	pur
2D	li-	4r	.	1A	li-	.	.	4f	li-
.	.	.	.	.	.	8d	.	.	.
.	.	4D	<pur	.	.	2d	.	8eL	.
.	.	.	.	.	.	.	.	8dJ	.
2AA	-ce,	2A	li-	.	.	.	.	2e	.
.	.	.	.	.	.	4c#i	.	.	.
=31	=31	=31	=31	=31	=31	=31	=31	=31	=31
2r	.	2D	-ce,>	1A	-ce,	1d	-ce,	2f#X	-ce,
2D	Deb-	4r	.	.	.	.	.	2f#i	Deb-
.	.	4d	Deb-	.	.	.	.	.	.
4GG	-bo	4B-y	-bo	1r	.	1r	.	4g	-bo
4G	for-	4B-y	for-	.	.	.	.	4d	for-
4F	-si	4A	-si	.	.	.	.	4fnXi	-si
4E	spe-	4G	spe-	.	.	.	.	4g	spe-
=32	=32	=32	=32	=32	=32	=32	=32	=32	=32
1D	-rar,	1d	-rar	2r	.	2r	.	2f#X	-rar,
.	.	.	.	2d	Deb-	2f#X	Deb-	2a	Deb-
1r	.	1r	.	4B-y	-bo	4g	-bo	4d	-bo
.	.	.	.	4B-y	for-	4d	for-	4.dd	for-
.	.	.	.	4A	-si	4fnXi	-si	.	.
.	.	.	.	.	.	.	.	8cc	-si
.	.	.	.	4G	spe-	4g	spe-	4b-y	spe-
=33	=33	=33	=33	=33	=33	=33	=33	=33	=33
0r	.	0r	.	2.d	-rar	2f#X	-rar	4a	-rar
.	.	.	.	.	.	.	.	4a	d'es-
.	.	.	.	.	.	2r	.	4b-y	-ser
.	.	.	.	4A	d'es-	.	.	4cc	fe-
.	.	.	.	2B-y	-ser	2d	d'es-	8ddL	-li-
.	.	.	.	.	.	.	.	8cc	.
.	.	.	.	.	.	.	.	8b-y	.
.	.	.	.	.	.	.	.	8a	.
.	.	.	.	2c	fe-	4e	-ser	8g	.
.	.	.	.	.	.	.	.	8cJ	.
.	.	.	.	.	.	4g	fe-	[4cc	.
=34	=34	=34	=34	=34	=34	=34	=34	=34	=34
2r	.	2r	.	1d	-li-	4f#X	-li-	8cc]L	.
.	.	.	.	.	.	.	.	8b-y	.
.	.	.	.	.	.	2g	.	8a	.
.	.	.	.	.	.	.	.	8gJ	.
2D	Deb-	2A	d'es-	.	.	.	.	2a	.
.	.	.	.	.	.	4f#i	.	.	.
4GG	-bo	2B-y	-ser	2d	-ce,	2g	-ce,	4g	-ce,
4G	for-	.	.	.	.	.	.	4g	d'es-
4F	-si	2c	fe-	2r	.	2r	.	4a	-ser
4E	spe-	.	.	.	.	.	.	4cc	fe-
=35	=35	=35	=35	=35	=35	=35	=35	=35	=35
2D	-rar	2d	-li-	4r	.	2r	.	4b-y	-li-
.	.	.	.	4d	Deb-	.	.	8aL	.
.	.	.	.	.	.	.	.	8g	.
2D	d'es-	2d	-ce,	4A	-bo	2a	Deb-	8f	.
.	.	.	.	.	.	.	.	8e	.
.	.	.	.	4.a	for-	.	.	8f	.
.	.	.	.	.	.	.	.	8gJ	.
2F	-ser	2A	<d'es-	.	.	4d	-bo	2a	.
.	.	.	.	8g	-si	.	.	.	.
.	.	.	.	4f	spe-	4.dd	for-	.	.
2G	fe-	4B-y	-ser	2d	-rar,	.	.	2g	-ce,
.	.	.	.	.	.	8cc	-si	.	.
.	.	4d	fe-	.	.	4b-y	spe-	.	.
=36	=36	=36	=36	=36	=36	=36	=36	=36	=36
2A	-li-	2c#X	-li-	2r	.	2a	-rar	2e	<d'es-
2D	-ce,	2d	-ce,>	4r	.	2a	d'es-	4f#X	-ser
.	.	.	.	4d	<Deb-	.	.	4a	fe-
2r	.	1r	.	4G	-bo	2b-y	-ser	2g	-li-
.	.	.	.	4g	for-	.	.	.	.
2AA	d'es-	.	.	4f	-si	2cc	fe-	4a	-ce,>
.	.	.	.	4e	spe-	.	.	4a	Deb-
=37	=37	=37	=37	=37	=37	=37	=37	=37	=37
2BB-y	-ser	4r	.	2d	-rar>	8ddL	-li-	4g	-bo
.	.	.	.	.	.	8cc	.	.	.
.	.	4D	d'es-	.	.	8b-y	.	4dd	for-
.	.	.	.	.	.	8aJ	.	.	.
2C	fe-	4E	-ser	2r	.	2g	.	4cc	-si
.	.	4G	fe-	.	.	.	.	4b-y	spe-
[1D	-li-	2F#X	-li-	4r	.	4d	-ce,	2a	-rar
.	.	.	.	4d	d'es-	4a	Deb-	.	.
.	.	4A	-ce,	4.f#X	-ser	4d	-bo	4r	.
.	.	4A	Deb-	.	.	[4dd	for-	4d	d'es-
.	.	.	.	8g	fe-	.	.	.	.
=38	=38	=38	=38	=38	=38	=38	=38	=38	=38
1D]	.	4D	-bo	4a	-li-	8dd]	.	2.f#X	-ser
.	.	.	.	.	.	8cc	-si	.	.
.	.	4.d	for-	4d	-ce,	4b-y	spe-	.	.
.	.	.	.	2d	d'es-	4a	-rar	.	.
.	.	8c	-si	.	.	.	.	.	.
.	.	4B-y	spe-	.	.	2d	d'es-	4g	fe-
1D	-ce,	2A	-rar	[1d	-ser	.	.	2a	-li-
.	.	.	.	.	.	2f#X	-ser	.	.
.	.	2D	d'es-	.	.	.	.	4a	-ce,
.	.	.	.	.	.	4g	fe-	4b-y	fe-
=39	=39	=39	=39	=39	=39	=39	=39	=39	=39
1D	fe-	2F#X	-ser	2d]	.	4.a	-li-	0dd	-li-
.	.	.	.	.	.	8g	.	.	.
.	.	2G	fe-	2d	fe-	1g	.	.	.
1D	-li-	1A	-li-	1d	-li-	.	.	.	.
.	.	.	.	.	.	2f#X	.	.	.
=40	=40	=40	=40	=40	=40	=40	=40	=40	=40
0GGl	-ce?	0Gl	-ce?	0dl	-ce?	0gl	-ce?	0bnXl	-ce?
==	==	==	==	==	==	==	==	==	==
*-	*-	*-	*-	*-	*-	*-	*-	*-	*-
!!!system-decoration: [*]
!!!RDF**kern: i = editorial accidental
!!!RDF**kern: l = terminal long
!!!ENC: Emiliano Ricciardi
!!!END: 2019
!!!EED: Ricciardi, Emiliano
!!!EEV: 2019/05/13
!!!YEC: Copyright 2018 Emiliano Ricciardi, All Rights Reserved
!!!ONB: Translated from MusicXML on 2019/05/13
!!@@BEGIN:	VERSEDATA
!!@SOLERTI:	760
!!@CATALOGNUM:	Trm0760
!!@LAST_MODIFIED: 2020/07/12
!!@TITLE:		Quant'io sono infelice
!!@GENRE:		madrigale
!!@MANUSRC:	Ts<sub>2</sub>, V<sub>13/TS2</sub>
!!@PRINTSRC:	22, 26, 31, 35, 69, 141, 166, 169
!!@@BEGIN:	VERSES
!!@ABOUTIT:	[A una gentildonna che lo visitò in S. Anna.]
!!@ABOUTEN:	[To a gentlewoman who visited him in S. Anna.]
!!@EDITOR:	Solerti, Angelo
!!@EDITION_TITLE: Le Rime di Torquato Tasso
!!@EDITION_LOC:	Bologna
!!@EDITION_PUB:	Romagnoli-Dall’Acqua
!!@EDITION_DATE:  1898-1902
!!@EDITION_VOL:	3
!!@EDITION_PAGE:  311
!!@TRANSLATOR:	Emiliano Ricciardi and Amyrose McCue Gill
!!@VERSE:
!!	Quant'io sono infelice
!!	Tanto voi bella sete,
!!	E con gli occhi il mio duol temprar potete.
!!	Né miracol né mostro
!!	Altro è di noi maggiore;
!!	Io di fortuna mostro e voi d'Amore.
!!	Ma, s'ad un guardo vostro
!!	In me tanto pur lice,
!!	Debbo sperar giammai d'esser felice?
!!@TVERSE:
!!	I am as unhappy
!!	As you are beautiful,
!!	And with your eyes you can temper my pain.
!!	Neither miracle nor other
!!	Wonder greater than us.
!!	I am a wonder of fate and you of Love.
!!	But, if one of your gazes
!!	Is even permitted me,
!!	Must I hope ever to be happy?
!!@@END:		VERSES
!!@OTHER_CRIT_ED:   None
!!@ATTRIBUTION_ABOUT:	Secure
!!		<br>
!!		Among other sources (see Literary Sources), this poem survives in a copy with Tasso's autograph annotations of the print <i>Rime et prose del Signor Torquato Tasso. Parte terza. Novamente poste in luce</i>
!!(Venetia: Giulio Vasalini, 1583)
!!@DATING:	In or before 1583
!!@DEDICATEE:
!!@COMMENTARY:
!!@@END:		VERSEDATA
!!@@BEGIN:	SETTING
!!@CATALOGNUM:	Trm0760a
!!@RIMETITLE:	Quant'io sono infelice
!!@SETTINGTITLE: Quant'io son infelice
!!@SOLERTI:	760
!!@COMPOSER:	Ferrabosco, Alfonso
!!@PRINCEPSTITLE:	Il primo libro de madrigali a cinque voci
!!@PRINCEPSLOC:	Venetia
!!@NORMLOC:	Venice
!!@NORMPUB:	Angelo Gardano
!!@NORMPUBSHORT:	Gardano
!!@PRINCEPSPUB:	Gardano
!!@PRINCEPSYEAR:	1587
!!@PRINCEPSRISM:	F 254
!!@REPRINTS:	1588-29
!!@OVOICES:	5
!!@EXTANTVOICES:	5
!!@PARTBOOKS:	
!!@EXTPARTBOOKS:	
!!@OCLEFS:	C1,C1,C3,C4,F4
!!@OMENSURATION:	Cut-C
!!@OKEYSIG:	b-
!!@FINAL:	(D)G
!!@TIMPEDITOR:	Ricciardi, Emiliano
!!@NOTE:		
!!@@END:		SETTING
